X: 1184
T: Banks of Inverness (A77)
N: page A77
N: heptatonic
R: Reel
M: 4/4
L: 1/8
K: G
"G"D2 D2 ED B,2|D2 E2 "D"G2 A2|"G"B2 d2 "D"Ac BA|"C"G2 E2 E2 G2|"G"D2 ED B,2 C2|
D2 E2 "D"G2 A2|"G"B2 d2 "D" Ac BA|"G"G6:|A2|"G"B2 d2 d2 cA|
"C"c2 e2 e2 dc|"G"B2 d2 "D"Ac BA|"Em"G2 E2 E4|"G"B2 d2 d2 cB|"C"c2 e2 e2 ef|
"Em"g2 e2 "D"f2 d2|"Em" e6 ef|g2 e2 "D"f2 d2|"Em"e2 d2 c2 A2|"G"B2 d2 Ac BA|
"Em""C" G2 E2 E2 G2|"G"D2 ED B,2 C2|D2 E2 "D"G2 A2|"G"B2 d2 "D"Ac BA|"G"G6-G2|

